X:206
T:Impulsive
C:Barry Mitterhoff solo
N:Written by David Grier Arranged: Barry Mitterhoff TablEdited by Brian Summers
L:1/8
Q:1/4=205
M:4/4
K:Bb
z8 | {c}"G"df d_d cB G=d | cA dc AF zG | Ac GF D2 gf | dc B=B G3c | df d_d cB G=d | 
cA dc AF zG | Ac GF D2 gf | dc B=B G3c | df d_d cB G=d | cA dc AF zG | Ac GF D2 g_g | 
gf dc BG zc | df d_d cB G=d | cA dc AF zG | Ac GF D2 gf | dc B=B G2 DF | GD GA BG Bd | 
c3d cB GF | D2 d4 gb | gf dc BG DF | GD GA Bd DE | =EG cd cB GF | D2 g3f dc | 
BA GF G2 DF | GD GA BG Bd | c3d cB GF | DA dc d2 gb | gf dc BG DF | GD GA Bd DE | 
=EG cd cB GF | D2 g3f dc | BA G2 [g4B4D4G,4] | 
 

